source/img/favicons/favicon.svg

<svg width="43" height="42" viewBox="0 0 43 42" fill="none" xmlns="http://www.w3.org/2000/svg">
<g clip-path="url(#clip0_208_1591)">
<rect width="43" height="42" fill="white"/>
<path d="M15.731 27.2445L19.4991 23.359L23.7853 27.2445H31.133L19.452 16.0044L7.86523 27.2445H15.731Z" fill="#2D383F"/>
<path d="M26.5178 9.20485L20.9599 14.7555L24.6337 18.4559L26.5178 16.6057L36.8328 26.6894C34.4778 32.8414 28.4489 37.2357 21.3367 37.2357C12.1991 37.2357 4.80428 29.9736 4.80428 21C4.85138 12.0264 12.2462 4.76432 21.3838 4.76432C29.4851 4.76432 36.2676 10.5463 37.6336 18.0859L42.6262 23.2665C42.7204 22.5264 42.7675 21.7401 42.7675 21C42.7675 15.4031 40.5538 10.13 36.5031 6.15198C32.4525 2.17401 27.083 0 21.3838 0C15.6375 0 10.3151 2.17401 6.26441 6.15198C2.21374 10.13 0 15.3568 0 21C0 26.6432 2.21374 31.87 6.26441 35.848C10.3151 39.826 15.6846 42 21.3838 42C27.083 42 32.4525 39.826 36.5031 35.848C38.9995 33.3965 40.7893 30.4824 41.7784 27.2907C41.9668 26.7357 42.1081 26.1344 42.2494 25.5793L37.9162 21.0925L26.5178 9.20485Z" fill="#2D383F"/>
</g>
<defs>
<clipPath id="clip0_208_1591">
<rect width="43" height="42" fill="white"/>
</clipPath>
</defs>
</svg>

<svg viewBox="0 0 43 42" fill="none" xmlns="http://www.w3.org/2000/svg"><g clip-path="url(#a)"><path fill="#fff" d="M0 0h43v42h-43z"/><path d="m15.73 27.24 3.77-3.88 4.29 3.88h7.34l-11.68-11.24-11.58 11.24h7.86Z" fill="#2D383F"/><path d="m26.52 9.2-5.56 5.56 3.67 3.7 1.89-1.85 10.31 10.08a16.54 16.54 0 0 1-15.5 10.55c-9.13 0-16.53-7.27-16.53-16.24a16.45 16.45 0 0 1 16.58-16.24c8.1 0 14.89 5.79 16.25 13.33l5 5.18a20.67 20.67 0 0 0-6.12-17.11 21.43 21.43 0 0 0-15.13-6.16 21.35 21.35 0 0 0-15.12 6.15 20.59 20.59 0 0 0-6.26 14.85 20.6 20.6 0 0 0 6.26 14.85 21.43 21.43 0 0 0 15.12 6.15c5.7 0 11.07-2.17 15.12-6.15a20.46 20.46 0 0 0 5.28-8.56c.19-.55.33-1.16.47-1.71l-4.33-4.49-11.4-11.89Z" fill="#2D383F"/></g><defs><clipPath id="a"><path fill="#fff" d="M0 0h43v42h-43z"/></clipPath></defs></svg>
